X:2303
T:Strathspey
O:ireland
R:strathspey
D:Tommy Peoples
Z:id:hn-strathspey-8
M:C|
L:1/8
K:A
A,2 ~A,2 C<E E2|:A>B c>A B>A B<c|A,2 ~A,2 C<E E>c|B/A/B/c/ d/c/B/A/ F3A|
E<A, ~A,2 C<E E2|A>B c>A B>A B<c|d>c d>f e<c c>a|1 B/A/B/c/ d/c/B/A/ F3A|
EA, ~A,2 C<E E2:|2 B/A/B/c/ d/c/B/A/ F3e|:f/e/d/c/ a>c b>c a2|
f/e/d/c/ a>g f>e d>c|B<b b>f a/g/f/e/ b2|B<b b>f a>g f>e|
f/e/d/c/ a>c b>c a2|f/e/d/c/ a>g f>e d>c|d/e/f/g/ a/g/f/e/ f/e/d/c/ d/c/B/A/|
[1 B/A/B/c/ d/c/B/A/ F3e:|2 B/A/B/c/ d/c/B/A/ B/A/G/F/ E/D/C/B,/||
This file contains 8 waltzes (#1 - #8).
You can find more abc tune files at http://home1.swipnet.se/~w-11382/abc.htm
I've transcribed them as I have learnt them, which does not necessarily mean
that I play them that way nowadays. Many of the tunes include variations and
different versions. If there is a source (S:) or discography (D:) included the
version transcribed might still not be exactly as that source played the tune,
since I might have changed the tune around a bit when I learnt it.
The tunes were learnt from sessions, from friends or from recordings.
When I've included discography, it's often just a reference to what recordings
the tune appears on.
Last updated 17 December 1998.
(c) Copyright 1997-1998 Henrik Norbeck. This file:
- May be distributed freely (with restrictions below).
- May not be used for commercial purposes (such as printing a tune book to sell).
- This file (or parts of it) may not be made available on a web page for
download without permission from me.
- This copyright notice must be kept, except when e-mailing individual tunes.
- May be printed on paper for personal use.
- Questions? E-mail: henrik.norbeck@mailbox.swipnet.se






